src/img/settings.svg

<svg width="20" height="20" viewBox="0 0 20 20" fill="none" xmlns="http://www.w3.org/2000/svg">
<path fill-rule="evenodd" clip-rule="evenodd" d="M17.4846 11.0553C17.4846 10.7538 17.5866 10.4523 17.5866 10.0503C17.5866 9.64824 17.5866 9.34673 17.4846 9.04523L19.6269 7.33668C19.831 7.13568 19.831 6.93467 19.729 6.73367L17.6887 3.21608C17.5866 3.11558 17.3826 3.01508 17.0766 3.11558L14.5262 4.1206C14.0161 3.71859 13.404 3.41709 12.7919 3.11558L12.3839 0.502513C12.4859 0.201005 12.1798 0 11.9758 0H7.89519C7.69116 0 7.38512 0.201005 7.38512 0.40201L6.97706 3.11558C6.36496 3.31658 5.85489 3.71859 5.2428 4.1206L2.79443 3.11558C2.48839 3.01508 2.28436 3.11558 2.08033 3.31658L0.0400211 6.83417C-0.0619942 6.93467 0.040021 7.23618 0.244051 7.43719L2.38637 9.04523C2.38637 9.34673 2.28436 9.64824 2.28436 10.0503C2.28436 10.4523 2.28436 10.7538 2.38637 11.0553L0.244051 12.7638C0.040021 12.9648 0.0400211 13.1658 0.142036 13.3668L2.18234 16.8844C2.28436 16.9849 2.48839 17.0854 2.79443 16.9849L5.34481 15.9799C5.85489 16.3819 6.46698 16.6834 7.07907 16.9849L7.48713 19.598C7.48713 19.799 7.69116 20 7.99721 20H12.0778C12.2818 20 12.5879 19.799 12.5879 19.598L12.996 16.9849C13.608 16.6834 14.2201 16.3819 14.7302 15.9799L17.2806 16.9849C17.4846 17.0854 17.7907 16.9849 17.8927 16.7839L19.933 13.2663C20.035 13.0653 20.035 12.7638 19.831 12.6633L17.4846 11.0553ZM9.9355 13.5678C7.99721 13.5678 6.36497 11.9598 6.36497 10.0503C6.36497 8.1407 7.99721 6.53266 9.9355 6.53266C11.8738 6.53266 13.506 8.1407 13.506 10.0503C13.506 11.9598 11.8738 13.5678 9.9355 13.5678Z" fill="currentcolor"/>
</svg>

<svg xmlns="http://www.w3.org/2000/svg" width="20" height="20" fill="none"><path fill="currentcolor" fill-rule="evenodd" d="M17.485 11.055c0-.301.102-.603.102-1.005s0-.703-.102-1.005l2.142-1.708c.204-.201.204-.402.102-.603l-2.04-3.518c-.102-.1-.306-.2-.612-.1l-2.55 1.005c-.51-.402-1.123-.704-1.735-1.005L12.384.503C12.486.2 12.18 0 11.976 0h-4.08c-.205 0-.51.201-.51.402l-.409 2.714c-.612.2-1.122.603-1.734 1.005L2.794 3.116c-.306-.1-.51 0-.714.2L.04 6.835c-.102.1 0 .402.204.603l2.142 1.608c0 .302-.102.603-.102 1.005s0 .704.102 1.005L.244 12.764c-.204.2-.204.402-.102.603l2.04 3.517c.102.1.306.201.612.1l2.55-1.004c.51.402 1.123.703 1.735 1.005l.408 2.613c0 .201.204.402.51.402h4.08c.205 0 .51-.201.51-.402l.409-2.613c.612-.302 1.224-.603 1.734-1.005l2.55 1.005c.205.1.51 0 .613-.201l2.04-3.518c.102-.2.102-.502-.102-.603zm-7.55 2.513c-1.938 0-3.57-1.608-3.57-3.518s1.632-3.517 3.57-3.517c1.939 0 3.571 1.608 3.571 3.517 0 1.91-1.632 3.518-3.57 3.518" clip-rule="evenodd"/></svg>
